build/img/project/Icon-4.svg

<svg id="Icon-4" viewBox="0 0 72 72" xmlns="http://www.w3.org/2000/svg">
<path fill-rule="evenodd" clip-rule="evenodd" d="M13.0785 15.1822C13.0845 15.1822 12.9345 15.3382 12.7455 15.5242C12.0195 16.2292 10.5165 17.6962 10.5014 20.7652C10.4775 25.0582 13.3005 33.0292 26.8935 46.6192C40.4235 60.1432 48.3825 62.9992 52.6845 62.9992H52.7475C55.8165 62.9842 57.2805 61.4782 57.9885 60.7552C58.2045 60.5332 58.3785 60.3712 58.5015 60.2692C61.4895 57.2632 63.0195 55.0252 63.0046 53.5912C62.9835 52.1272 61.1625 50.3962 58.6455 48.0022C57.8445 47.2402 56.9745 46.4122 56.0565 45.4942C53.6775 43.1212 52.4985 43.5262 49.9065 44.4382C46.3215 45.6952 41.4015 47.4052 33.7575 39.7582C26.1015 32.1082 27.8145 27.1942 29.0685 23.6092C29.9745 21.0172 30.3885 19.8352 28.0065 17.4532C27.0735 16.5232 26.2365 15.6412 25.4655 14.8312C23.0865 12.3292 21.3705 10.5202 19.9155 10.4992H19.8915C18.4545 10.4992 16.2225 12.0352 13.0635 15.1942C13.0725 15.1852 13.0785 15.1822 13.0785 15.1822ZM52.6875 67.4992C45.2115 67.4992 35.4645 61.5472 23.7135 49.8022C11.9175 38.0092 5.95651 28.2322 6.00126 20.7412C6.02851 15.7912 8.62351 13.2562 9.59851 12.3052C9.64951 12.2422 9.82351 12.0712 9.88351 12.0112C14.1855 7.7062 17.0865 5.9662 19.9725 5.99874C23.3235 6.0442 25.7085 8.5522 28.7265 11.7292C29.4735 12.5152 30.2835 13.3702 31.1865 14.2702C35.5665 18.6502 34.3185 22.2232 33.3165 25.0912C32.2245 28.2202 31.2795 30.9202 36.9375 36.5782C42.6015 42.2362 45.3015 41.2912 48.4185 40.1902C51.2895 39.1882 54.8535 37.9342 59.2395 42.3142C60.1275 43.2022 60.9705 44.0032 61.7475 44.7442C64.9395 47.7772 67.4595 50.1742 67.5021 53.5342C67.5375 56.3992 65.7975 59.3182 61.5015 63.6172L59.5995 62.3272L61.2075 63.8992C60.2565 64.8742 57.7245 67.4722 52.7715 67.4992H52.6875Z" />
</svg>

<svg id="Icon-4" viewBox="0 0 72 72" xmlns="http://www.w3.org/2000/svg"><path fill-rule="evenodd" clip-rule="evenodd" d="M13.079 15.182c.005 0-.145.156-.334.342-.725.705-2.228 2.172-2.244 5.241-.024 4.293 2.8 12.264 16.392 25.854C40.423 60.143 48.383 63 52.684 63h.064c3.069-.015 4.533-1.52 5.24-2.244.217-.222.39-.384.514-.486 2.987-3.006 4.517-5.244 4.503-6.678-.022-1.464-1.843-3.195-4.36-5.589-.8-.762-1.67-1.59-2.589-2.508-2.378-2.373-3.557-1.968-6.15-1.056-3.584 1.257-8.505 2.967-16.148-4.68-7.657-7.65-5.944-12.564-4.69-16.149.906-2.592 1.32-3.774-1.062-6.156-.933-.93-1.77-1.812-2.54-2.622-2.38-2.502-4.096-4.31-5.55-4.332h-.024c-1.438 0-3.67 1.536-6.829 4.695a.067.067 0 01.015-.012zM52.686 67.5c-7.475 0-17.222-5.952-28.973-17.697C11.918 38.01 5.956 28.232 6 20.742c.028-4.95 2.623-7.486 3.598-8.437.05-.063.225-.234.285-.294C14.185 7.706 17.087 5.966 19.972 6c3.351.045 5.736 2.553 8.755 5.73.747.786 1.556 1.641 2.46 2.541 4.38 4.38 3.131 7.953 2.13 10.821-1.093 3.13-2.038 5.83 3.62 11.487 5.665 5.658 8.364 4.713 11.482 3.612 2.87-1.002 6.434-2.256 10.82 2.124.889.888 1.732 1.69 2.509 2.43 3.191 3.033 5.712 5.43 5.754 8.79.035 2.865-1.704 5.784-6 10.083l-1.903-1.29 1.609 1.572c-.951.975-3.483 3.573-8.436 3.6h-.084z"/></svg>
